frontend/assets/images/exif_shutter.svg

<svg fill="none" height="24" viewBox="0 0 24 24" width="24" xmlns="http://www.w3.org/2000/svg"><g stroke="#3d3d3d" stroke-width=".3"><rect height="2.3" rx=".65" width="1.3" x="11.85" y=".85"/><path d="m19.8438 3.60516h1.7v2.7h-1.7z" transform="matrix(.68481806 .72871409 -.72871409 .68481806 8.881538 -13.324175)"/><path d="m19.9009 1.76758h4.3v1.3h-4.3z" transform="matrix(.68481806 .72871409 -.72871409 .68481806 7.560465 -13.944957)"/></g><circle cx="12" cy="12" fill="#fff" r="10"/><path d="m21.4155 15.3411c-2.8231 2.0084-6.526 2.2315-9.5385.6589m-9.29255-7.34111c2.82994-2.01323 6.54399-2.23251 9.56035-.6474m3.2289 6.11281c2.8867-1.8193 4.5582-5.15017 4.2273-8.61208m-11.01916 4.39149c-2.85953 1.82539-4.51225 5.13989-4.18306 8.58409m11.12812-8.3508c-.133-3.40849-2.1819-6.52016-5.3448-7.96478m-1.70648 11.75338c.1555 3.384 2.19868 6.4664 5.34208 7.9022m5.2533-16.89887c3.9053 3.90525 3.9053 10.23687 0 14.14207-3.9052 3.9053-10.23684 3.9053-14.14207 0-3.90524-3.9052-3.90524-10.23684 0-14.14207 3.90525-3.90524 10.23687-3.90524 14.14207 0zm-4.2426 4.24264c1.5621 1.56213 1.5621 4.09473 0 5.65683s-4.0947 1.5621-5.65683 0c-1.56209-1.5621-1.56209-4.0947 0-5.65683 1.56213-1.56209 4.09473-1.56209 5.65683 0z" stroke="#3d3d3d" stroke-linecap="round" stroke-linejoin="round" stroke-width=".5"/></svg>

<svg width="24" height="24" viewBox="0 0 24 24" fill="none" xmlns="http://www.w3.org/2000/svg">
    <path d="M21.0081 4.84397L19.8439 3.60516L18.7285 4.65334L19.8927 5.89215L21.0081 4.84397Z" stroke="#E2E2E2" stroke-width="0.3"/>
    <path d="M22.8457 4.90105L19.901 1.76758L18.9537 2.65784L21.8984 5.79131L22.8457 4.90105Z" stroke="#E2E2E2" stroke-width="0.3"/>
    <path d="M21.4155 15.3411C18.5924 17.3495 14.8895 17.5726 11.877 16M2.58445 8.65889C5.41439 6.64566 9.12844 6.42638 12.1448 8.01149M15.3737 14.1243C18.2604 12.305 19.9319 8.97413 19.601 5.51222M8.58184 9.90371C5.72231 11.7291 4.06959 15.0436 4.39878 18.4878M15.5269 10.137C15.3939 6.72851 13.345 3.61684 10.1821 2.17222M8.47562 13.9256C8.63112 17.3096 10.6743 20.392 13.8177 21.8278M19.071 4.92893C22.9763 8.83418 22.9763 15.1658 19.071 19.071C15.1658 22.9763 8.83416 22.9763 4.92893 19.071C1.02369 15.1658 1.02369 8.83416 4.92893 4.92893C8.83418 1.02369 15.1658 1.02369 19.071 4.92893ZM14.8284 9.17157C16.3905 10.7337 16.3905 13.2663 14.8284 14.8284C13.2663 16.3905 10.7337 16.3905 9.17157 14.8284C7.60948 13.2663 7.60948 10.7337 9.17157 9.17157C10.7337 7.60948 13.2663 7.60948 14.8284 9.17157Z" stroke="#E2E2E2" stroke-width="0.5" stroke-linecap="round" stroke-linejoin="round"/>
    <path d="M13.15 1.5V2.05H11.85V1.5C11.85 1.14101 12.141 0.85 12.5 0.85C12.859 0.85 13.15 1.14101 13.15 1.5Z" stroke="#E2E2E2" stroke-width="0.3"/>
</svg>
